src/icons/svg/push-account.svg

<?xml version="1.0" encoding="UTF-8"?>
<svg width="40px" height="42px" viewBox="0 0 40 42" version="1.1" xmlns="http://www.w3.org/2000/svg"
>
    <path d="M37.0244422,3.54684106 C36.762241,3.55722292 36.5003716,3.60657231 36.2421999,3.691476 L4.30764957,14.1409828 C3.22438082,14.4943453 2.46204899,15.4596211 2.37027146,16.5933296 C2.27849393,17.7270854 2.87116059,18.7994983 3.88090303,19.3228103 L17.2609384,26.2751477 L24.2109055,39.662531 C24.702029,40.6035351 25.6657879,41.1805578 26.7123172,41.1805578 C26.7902996,41.1805578 26.8626882,41.1778083 26.9453164,41.1731625 C28.0790249,41.0768341 29.0442059,40.3166829 29.3976632,39.2334141 L39.8544705,7.3062591 C40.1941327,6.27352488 39.929419,5.15446479 39.162868,4.38796125 C38.5880259,3.81302434 37.8110457,3.51560068 37.0244422,3.54684106 Z M36.5805821,6.94820349 L26.6289779,37.3426359 L20.5471522,25.6302399 L26.1678622,20.0094352 C26.8094516,19.3678458 26.8094516,18.3261519 26.1678622,17.6846099 C25.5263202,17.0430679 24.4870914,17.0430679 23.8455494,17.6846099 L18.3277099,23.204867 L6.19103254,16.8998551 L36.5805821,6.94820349 Z"
          id="形状"></path>
    <path d="M0.0743636771,6.29424119 C-0.18020519,5.52148009 0.239904549,4.68875072 1.01261824,4.43422926 L14.2491564,0.0743226136 C15.0219175,-0.180151442 15.8546469,0.239910892 16.1091683,1.01262458 C16.3636898,1.78538568 15.9435801,2.61811505 15.1708664,2.87263652 L1.9343282,7.23249576 C1.16161451,7.48701722 0.328885138,7.06695489 0.0743636771,6.29424119 Z"
          id="路径"></path>
    <path d="M1.22878845,11.3278309 C0.974266992,10.5551172 1.39437673,9.72238786 2.16709042,9.4678664 L8.03516354,7.53499184 C8.80787723,7.28047037 9.6406066,7.70058011 9.89512807,8.47329381 C10.1496495,9.2460075 9.72958719,10.0787843 8.9568735,10.3332583 L3.08880038,12.2661329 C2.31603929,12.5206544 1.48330991,12.1005446 1.22878845,11.3278309 L1.22878845,11.3278309 Z"
          id="路径"></path>
    <path d="M12.7106977,29.2551204 C12.7106977,28.3137371 13.4738354,27.5506468 14.4151713,27.5506468 C15.3565547,27.5506468 16.119645,28.3137371 16.119645,29.2551204 C16.119645,30.1964564 15.3565547,30.9595941 14.4151713,30.9595941 C13.4738354,30.9595941 12.7106977,30.1964564 12.7106977,29.2551204 Z"
          id="路径"></path>
    <path d="M9.77225237,32.6640678 C9.77225237,31.7227319 10.5353427,30.9595941 11.476726,30.9595941 C12.418062,30.9595941 13.1811997,31.7227319 13.1811997,32.6640678 C13.1811997,33.6054037 12.418062,34.3685415 11.476726,34.3685415 C10.5353427,34.3685415 9.77225237,33.6054037 9.77225237,32.6640678 Z"
          id="路径"></path>
    <path d="M6.36330502,36.0730151 C6.36330502,35.1316792 7.12639535,34.3685415 8.0677787,34.3685415 C9.00911463,34.3685415 9.77225237,35.1316792 9.77225237,36.0730151 C9.77225237,37.0143511 9.00911463,37.7774888 8.0677787,37.7774888 C7.12639535,37.7774888 6.36330502,37.0143511 6.36330502,36.0730151 Z"
          id="路径"></path>
</svg>

<svg width="40" height="42" xmlns="http://www.w3.org/2000/svg"><path d="M37.024 3.547c-.262.01-.524.06-.782.144L4.308 14.141a2.817 2.817 0 0 0-.427 5.182l13.38 6.952 6.95 13.388a2.817 2.817 0 0 0 2.734 1.51 2.826 2.826 0 0 0 2.453-1.94L39.854 7.306a2.848 2.848 0 0 0-.691-2.918 2.863 2.863 0 0 0-2.139-.841zm-.443 3.401l-9.952 30.395-6.082-11.713 5.62-5.62a1.645 1.645 0 0 0 0-2.325 1.642 1.642 0 0 0-2.321 0l-5.518 5.52L6.19 16.9l30.39-9.952zM.074 6.294a1.473 1.473 0 0 1 .939-1.86L14.249.074a1.473 1.473 0 0 1 .922 2.799L1.934 7.233a1.473 1.473 0 0 1-1.86-.939zM1.229 11.328a1.473 1.473 0 0 1 .938-1.86l5.868-1.933a1.473 1.473 0 0 1 .922 2.798l-5.868 1.933a1.473 1.473 0 0 1-1.86-.938z"/><path d="M12.71 29.255a1.704 1.704 0 1 1 3.41 0 1.704 1.704 0 0 1-3.41 0zM9.772 32.664a1.704 1.704 0 1 1 3.41 0 1.704 1.704 0 0 1-3.41 0zM6.363 36.073a1.704 1.704 0 1 1 3.41 0 1.704 1.704 0 0 1-3.41 0z"/></svg>
